src/assets/icons/fi_dollar_purple.svg

<svg fill="none" height="24" viewBox="0 0 24 24" width="24" xmlns="http://www.w3.org/2000/svg"><g stroke="#7126b5" stroke-linecap="round" stroke-linejoin="round" stroke-width="2"><path d="m12 1v22"/><path d="m17 5h-7.5c-.92826 0-1.8185.36875-2.47487 1.02513-.65638.65637-1.02513 1.54661-1.02513 2.47487s.36875 1.8185 1.02513 2.4749c.65637.6564 1.54661 1.0251 2.47487 1.0251h5c.9283 0 1.8185.3687 2.4749 1.0251s1.0251 1.5466 1.0251 2.4749-.3687 1.8185-1.0251 2.4749-1.5466 1.0251-2.4749 1.0251h-8.5"/></g></svg>

<svg width="24" height="24" viewBox="0 0 24 24" fill="none" xmlns="http://www.w3.org/2000/svg">
<path d="M12 1V23" stroke="#7126B5" stroke-width="2" stroke-linecap="round" stroke-linejoin="round"/>
<path d="M17 5H9.5C8.57174 5 7.6815 5.36875 7.02513 6.02513C6.36875 6.6815 6 7.57174 6 8.5C6 9.42826 6.36875 10.3185 7.02513 10.9749C7.6815 11.6313 8.57174 12 9.5 12H14.5C15.4283 12 16.3185 12.3687 16.9749 13.0251C17.6313 13.6815 18 14.5717 18 15.5C18 16.4283 17.6313 17.3185 16.9749 17.9749C16.3185 18.6313 15.4283 19 14.5 19H6" stroke="#7126B5" stroke-width="2" stroke-linecap="round" stroke-linejoin="round"/>
</svg>
